ui/StatusQ/src/assets/img/icons/tiny/token-master.svg

<svg fill="none" height="16" viewBox="0 0 16 16" width="16" xmlns="http://www.w3.org/2000/svg"><path clip-rule="evenodd" d="m13.5 6.51587c0 .34137-.2543.94053-1.2967 1.53856-1.0011.57432-2.48396.97732-4.2033.97732s-3.20222-.403-4.20332-.97732c-1.04241-.59803-1.29668-1.19719-1.29668-1.53856s.25427-.94053 1.29668-1.53856c1.0011-.57432 2.48398-.97731 4.20332-.97731s3.2022.40299 4.2033.97731c1.0424.59803 1.2967 1.19719 1.2967 1.53856zm0 2.96826c0-.22322-.2691-.29489-.4609-.18078-1.2732.75735-3.06026 1.22835-5.0391 1.22835s-3.7659-.471-5.03906-1.22835c-.19184-.11411-.46094-.04244-.46094.18078 0 .34137.25427.94057 1.29668 1.53857 1.0011.5743 2.48398.9773 4.20332.9773s3.2022-.403 4.2033-.9773c1.0424-.598 1.2967-1.1972 1.2967-1.53857zm1.5-2.96826v2.96826.01584.00003s-.0001.00001-.0001.00003c-.0149 2.21057-3.1431 3.99997-6.9999 3.99997-3.85675 0-6.98501-1.7894-6.99995-3.99997 0-.00002-.00001-.00003-.00002-.00003-.00002 0-.00003-.00001-.00003-.00003v-.01584-2.96826-.01584c0-.00002.00001-.00003.00003-.00003.00001 0 .00002-.00001.00002-.00003.01494-2.21059 3.1432-3.99997 6.99995-3.99997 3.8568 0 6.985 1.78938 6.9999 3.99997 0 .00002.0001.00003.0001.00003v.00003z" fill="#000" fill-rule="evenodd"/></svg>

<svg width="16" height="16" viewBox="0 0 16 16" fill="none" xmlns="http://www.w3.org/2000/svg">
<path fill-rule="evenodd" clip-rule="evenodd" d="M13.5 6.51587C13.5 6.85724 13.2457 7.4564 12.2033 8.05443C11.2022 8.62875 9.71934 9.03175 8 9.03175C6.28066 9.03175 4.79778 8.62875 3.79668 8.05443C2.75427 7.4564 2.5 6.85724 2.5 6.51587C2.5 6.1745 2.75427 5.57534 3.79668 4.97731C4.79778 4.40299 6.28066 4 8 4C9.71934 4 11.2022 4.40299 12.2033 4.97731C13.2457 5.57534 13.5 6.1745 13.5 6.51587ZM13.5 9.48413C13.5 9.26091 13.2309 9.18924 13.0391 9.30335C11.7659 10.0607 9.97884 10.5317 8 10.5317C6.02116 10.5317 4.2341 10.0607 2.96094 9.30335C2.7691 9.18924 2.5 9.26091 2.5 9.48413C2.5 9.8255 2.75427 10.4247 3.79668 11.0227C4.79778 11.597 6.28066 12 8 12C9.71934 12 11.2022 11.597 12.2033 11.0227C13.2457 10.4247 13.5 9.8255 13.5 9.48413ZM15 6.51587V9.48413V9.49997C15 9.49999 15 9.5 15 9.5C15 9.5 14.9999 9.50001 14.9999 9.50003C14.985 11.7106 11.8568 13.5 8 13.5C4.14325 13.5 1.01499 11.7106 1.00005 9.50003C1.00005 9.50001 1.00004 9.5 1.00003 9.5C1.00001 9.5 1 9.49999 1 9.49997V9.48413V6.51587V6.50003C1 6.50001 1.00001 6.5 1.00003 6.5C1.00004 6.5 1.00005 6.49999 1.00005 6.49997C1.01499 4.28938 4.14325 2.5 8 2.5C11.8568 2.5 14.985 4.28938 14.9999 6.49997C14.9999 6.49999 15 6.5 15 6.5C15 6.5 15 6.50001 15 6.50003V6.51587Z" fill="black"/>
</svg>
